X:1
T: Lynley's Lilt
C:
R:Strathspey
Q: 128
K:A
M:4/4
L:1/16
|:A2|E3A c3c e3A c3e|d3c B3A G3A B3c|E3A c3c e3A c3e|G3B e3d cA3 A4|
E3A c3c e3A c3e|d3c B3A G3A B3c|E3A c3c e3A c3e|G3B e3d cA3 A2:|
|:e2|A3c e3e f3d B3d|d3c B3A G3A B3c|F3G A3B G3A B3c|A3B c3d B3c d3e|
E3A c3c e3A c3e|E3G B3B B3E E3G|e3d c3B E3G B3G|A4 A4 A4:|
